X:1
T:Title
%%score { ( 1 3 ) | 2 }
L:1/8
Q:1/4=100
M:3/4
K:C
V:1 treble nm="Grand Piano"
V:3 treble 
V:2 bass 
V:1
 [EG]4 [FA][EG] | [CE]2 [EA]2 [EG]2 | [Ec]4 [EB][EA] | F6 | G4 DE | F2 B3 A | [FA]4 [EG][_E^F] | %7
w: J.~W.~van~DeVenter * *|||||||
 [EG]6 | [EG]4 [FA][EG] | [CE]2 [DF]2 [EG]2 | [E_B]4 [EA]E | F6 | d4 AB | [Ec]2 B2 A2 | G6- | %15
w: ||||||||
[M:2/4] G4 |[M:1/4] [Ec]2 |[M:3/4] [FB]3 [FA] F2 | A4 B2 | [EA]3 [EG] [CE]2 | [EG]4 [CE]2 | %21
w: ||||||
 [B,F]4 [FG]2 | [Fd]4 [Ec]2 | G4- [DFG-]2 | [CEG]4 [CEG]2 | [CFA]4 [CFA]2 | [CGc]4 [CGc]2 | %27
w: ||||||
 [^Fc]4 [FA]2 | d4 G2 | e4- [Ge-]2 |[M:4/4] [Ge]6 G2 | d6 [Ec]2 |[M:3/4] [Ec]6 |] %33
w: ||||||
V:2
 [C,C]4 [C,C][C,C] | [C,G,]2 [C,C]2 [C,C]2 | [C,G,]4 [C,G,][C,G,] | [D,G,B,]6 | %4
 [G,B,D]4 [G,B,][K:treble][G,C] | [G,B,D]2 [G,DF]3 [G,B,F] | [C,C]4 [C,C][C,C] | [C,C]6 | %8
 [C,C]4 [C,C][C,C] | [C,G,]2 [C,G,]2 [C,C]2 | [C,C]4 [^C,A,][C,A,] | [D,A,D]6 | %12
 [G,,B,F]4[K:treble] [G,B,F][G,F] | [C,G,]2 [D,G,D]2 [D,CD]2 | [G,B,D]6- |[M:2/4] [G,B,D]4 | %16
[M:1/4] [C,G,]2 |[M:3/4] [D,G,]3 [D,G,][K:treble] [G,B,D]2 | [G,B,F]4 [G,B,F]2 | %19
 [C,C]3 [C,C] [C,G,]2 | [C,C]4 [C,G,]2 | [D,G,]4 [D,B,]2 | [G,,B,]4 [C,G,]2 | C,4 C,2 | C,4 C,2 | %25
 F,4 F,2 | E,4 E,2 | [D,A,]4 [D,C]2 | [G,,B,F]4 [G,B,]2 | [C,C]4 [C,C]2 | %30
[M:4/4][K:treble] C6 [CE]2 | [G,B,F]6[K:bass] [C,G,]2 |[M:3/4] [C,G,]6 |] %33
V:3
 x6 | x6 | x6 | x6 | x6 | x6 | x6 | x6 | x6 | x6 | x6 | x6 | x6 | x6 | x6 |[M:2/4] x4 |[M:1/4] x2 | %17
[M:3/4] x6 | x6 | x6 | x6 | x6 | x6 | [CE]4 z2 | x6 | x6 | x6 | x6 | x6 | G4 z2 |[M:4/4] x8 | x8 | %32
[M:3/4] x6 |] %33

